Flat-Remix-Blue/mimetypes/scalable/text-x-octave.svg

<svg xmlns="http://www.w3.org/2000/svg" xmlns:xlink="http://www.w3.org/1999/xlink" width="36pt" height="36pt" version="1.1" viewBox="0 0 36 36"> <defs> <clipPath id="clip1"> <path d="M 20 2 L 31 2 L 31 13 L 20 13 Z M 20 2"/> </clipPath> <clipPath id="clip2"> <path d="M 20.515625 2.625 L 30.328125 12.4375 L 22.023438 12.4375 C 21.292969 12.4375 20.515625 11.660156 20.515625 10.929688 Z M 20.515625 2.625"/> </clipPath> <image id="image6" width="36" height="36" xlink:href="data:image/png;base64,iVBORw0KGgoAAAANSUhEUgAAACQAAAAkCAYAAADhAJiYAAAABmJLR0QA/wD/AP+gvaeTAAAAmklEQVRYhe3T0QqCQBBG4aOtYEoUvf9Lildltl00C4tkbBeTIP+BAUEYP1YW1Pcqh53B9kbgaVPcwQF0tAmGSrMZ6AKcDQXw+AUVHEAtcAUaewYYgYmC3+cBCkAPnDJQMcoDVNnebgEqQnmAclTz4d0I3P4JStc9AjXvk4qLWQV53LLeEOl05gw4A3dgcPiuUkoppZRSSqk99gLWvSJpuDnlsAAAAABJRU5ErkJggg=="/> <clipPath id="clip3"> <path d="M 12 14 L 25 14 L 25 29 L 12 29 Z M 12 14"/> </clipPath> <clipPath id="clip4"> <path d="M 31.117188 21.390625 C 31.117188 28.574219 25.296875 34.390625 18.121094 34.390625 C 10.945312 34.390625 5.125 28.574219 5.125 21.390625 C 5.125 14.210938 10.945312 8.394531 18.121094 8.394531 C 25.296875 8.394531 31.117188 14.210938 31.117188 21.390625 Z M 31.117188 21.390625"/> </clipPath> <clipPath id="clip5"> <path d="M 21 16 L 24 16 L 24 19 L 21 19 Z M 21 16"/> </clipPath> <clipPath id="clip6"> <path d="M 31.117188 21.390625 C 31.117188 28.574219 25.296875 34.390625 18.121094 34.390625 C 10.945312 34.390625 5.125 28.574219 5.125 21.390625 C 5.125 14.210938 10.945312 8.394531 18.121094 8.394531 C 25.296875 8.394531 31.117188 14.210938 31.117188 21.390625 Z M 31.117188 21.390625"/> </clipPath> <clipPath id="clip7"> <path d="M 11 19 L 16 19 L 16 24 L 11 24 Z M 11 19"/> </clipPath> <clipPath id="clip8"> <path d="M 31.117188 21.390625 C 31.117188 28.574219 25.296875 34.390625 18.121094 34.390625 C 10.945312 34.390625 5.125 28.574219 5.125 21.390625 C 5.125 14.210938 10.945312 8.394531 18.121094 8.394531 C 25.296875 8.394531 31.117188 14.210938 31.117188 21.390625 Z M 31.117188 21.390625"/> </clipPath> <clipPath id="clip9"> <path d="M 21 24 L 25 24 L 25 28 L 21 28 Z M 21 24"/> </clipPath> <clipPath id="clip10"> <path d="M 31.117188 21.390625 C 31.117188 28.574219 25.296875 34.390625 18.121094 34.390625 C 10.945312 34.390625 5.125 28.574219 5.125 21.390625 C 5.125 14.210938 10.945312 8.394531 18.121094 8.394531 C 25.296875 8.394531 31.117188 14.210938 31.117188 21.390625 Z M 31.117188 21.390625"/> </clipPath> </defs> <g> <path style="fill:rgb(89.411%,18.823%,18.823%)" d="M 7.347656 3.152344 C 6.675781 3.152344 6.042969 3.785156 6.042969 4.457031 L 6.042969 31.847656 C 6.042969 32.480469 6.714844 33.152344 7.347656 33.152344 L 28.21875 33.152344 C 28.851562 33.152344 29.523438 32.480469 29.523438 31.847656 L 29.523438 11.632812 L 21.042969 3.152344 Z M 7.347656 3.152344"/> <g clip-path="url(#clip1)"> <g clip-path="url(#clip2)"> <use xlink:href="#image6"/> </g> </g> <path style="fill:rgb(88.235%,36.862%,36.862%)" d="M 21.042969 3.152344 L 29.523438 11.632812 L 22.347656 11.632812 C 21.714844 11.632812 21.042969 10.960938 21.042969 10.328125 Z M 21.042969 3.152344"/> <g clip-path="url(#clip3)"> <g clip-path="url(#clip4)"> <path style="fill:rgb(100.000%,100.000%,100.000%)" d="M 13.59375 16.019531 C 11.464844 18.300781 11.980469 22.558594 14.742188 25.527344 C 17.503906 28.496094 21.464844 29.046875 23.589844 26.761719 C 25.714844 24.480469 25.203125 20.21875 22.441406 17.253906 C 19.679688 14.285156 15.71875 13.734375 13.589844 16.019531 M 15.519531 16.96875 C 17.191406 15.171875 20.164062 15.5625 22.285156 17.839844 C 24.402344 20.117188 24.816406 23.421875 23.144531 25.214844 C 21.472656 27.011719 18.449219 26.621094 16.332031 24.34375 C 14.210938 22.066406 13.847656 18.765625 15.519531 16.96875"/> </g> </g> <g clip-path="url(#clip5)"> <g clip-path="url(#clip6)"> <path style="fill:rgb(100.000%,100.000%,100.000%)" d="M 21.855469 16.546875 L 23.105469 16.546875 C 23.296875 16.546875 23.449219 16.699219 23.449219 16.890625 L 23.449219 18.140625 C 23.449219 18.332031 23.296875 18.484375 23.105469 18.484375 L 21.855469 18.484375 C 21.664062 18.484375 21.511719 18.332031 21.511719 18.140625 L 21.511719 16.890625 C 21.511719 16.699219 21.664062 16.546875 21.855469 16.546875 M 21.855469 16.546875"/> </g> </g> <g clip-path="url(#clip7)"> <g clip-path="url(#clip8)"> <path style="fill:rgb(100.000%,100.000%,100.000%)" d="M 12.269531 19.457031 L 14.769531 19.457031 C 15.152344 19.457031 15.457031 19.761719 15.457031 20.140625 L 15.457031 22.644531 C 15.457031 23.023438 15.148438 23.328125 14.769531 23.328125 L 12.269531 23.328125 C 11.886719 23.328125 11.582031 23.019531 11.582031 22.644531 L 11.582031 20.140625 C 11.582031 19.761719 11.890625 19.457031 12.269531 19.457031 M 12.269531 19.457031"/> </g> </g> <g clip-path="url(#clip9)"> <g clip-path="url(#clip10)"> <path style="fill:rgb(100.000%,100.000%,100.000%)" d="M 22.511719 24.300781 L 24.386719 24.300781 C 24.671875 24.300781 24.902344 24.527344 24.902344 24.8125 L 24.902344 26.691406 C 24.902344 26.972656 24.671875 27.203125 24.386719 27.203125 L 22.511719 27.203125 C 22.226562 27.203125 21.996094 26.972656 21.996094 26.691406 L 21.996094 24.8125 C 21.996094 24.527344 22.226562 24.300781 22.511719 24.300781 M 22.511719 24.300781"/> </g> </g> </g> </svg>

<svg width="36pt" height="36pt" version="1.1" viewBox="0 0 36 36" xmlns="http://www.w3.org/2000/svg"><defs><filter id="a" x="-.192" y="-.192" width="1.384" height="1.384" color-interpolation-filters="sRGB"><feGaussianBlur stdDeviation="0.67843748"/></filter><clipPath id="h"><path d="m12 14h13v15h-13z"/></clipPath><clipPath id="g"><path d="m31.117 21.391c0 7.1836-5.8203 13-12.996 13-7.1758 0-12.996-5.8164-12.996-13 0-7.1797 5.8203-12.996 12.996-12.996 7.1758 0 12.996 5.8164 12.996 12.996z"/></clipPath><clipPath id="f"><path d="m21 16h3v3h-3z"/></clipPath><clipPath id="e"><path d="m31.117 21.391c0 7.1836-5.8203 13-12.996 13-7.1758 0-12.996-5.8164-12.996-13 0-7.1797 5.8203-12.996 12.996-12.996 7.1758 0 12.996 5.8164 12.996 12.996z"/></clipPath><clipPath id="d"><path d="m11 19h5v5h-5z"/></clipPath><clipPath id="c"><path d="m31.117 21.391c0 7.1836-5.8203 13-12.996 13-7.1758 0-12.996-5.8164-12.996-13 0-7.1797 5.8203-12.996 12.996-12.996 7.1758 0 12.996 5.8164 12.996 12.996z"/></clipPath><clipPath id="b"><path d="m21 24h4v4h-4z"/></clipPath><clipPath id="i"><path d="m31.117 21.391c0 7.1836-5.8203 13-12.996 13-7.1758 0-12.996-5.8164-12.996-13 0-7.1797 5.8203-12.996 12.996-12.996 7.1758 0 12.996 5.8164 12.996 12.996z"/></clipPath></defs><path d="m7.3477 3.1523c-0.67188 0-1.3047 0.63281-1.3047 1.3047v27.391c0 0.63281 0.67188 1.3047 1.3047 1.3047h20.871c0.63281 0 1.3047-0.67188 1.3047-1.3047v-20.215l-8.4805-8.4805z" fill="#e32f2f"/><path d="m20.668 3.5272 8.4805 8.4805h-7.1758c-0.63281 0-1.3047-0.67187-1.3047-1.3047z" filter="url(#a)" opacity=".2"/><path d="m21.043 3.1523 8.4805 8.4805h-7.1758c-0.63281 0-1.3047-0.67187-1.3047-1.3047z" fill="#e05d5d"/><g clip-path="url(#h)"><g clip-path="url(#g)"><path d="m13.594 16.02c-2.1289 2.2812-1.6133 6.5391 1.1484 9.5078 2.7617 2.9688 6.7227 3.5195 8.8477 1.2344 2.125-2.2812 1.6133-6.543-1.1484-9.5078-2.7617-2.9688-6.7227-3.5195-8.8516-1.2344m1.9297 0.94922c1.6719-1.7969 4.6445-1.4062 6.7656 0.87109 2.1172 2.2773 2.5312 5.582 0.85938 7.375-1.6719 1.7969-4.6953 1.4062-6.8125-0.87109-2.1211-2.2773-2.4844-5.5781-0.8125-7.375" fill="#fff"/></g></g><g clip-path="url(#f)"><g clip-path="url(#e)"><path d="m21.855 16.547h1.25c0.19141 0 0.34375 0.15234 0.34375 0.34375v1.25c0 0.19141-0.15234 0.34375-0.34375 0.34375h-1.25c-0.19141 0-0.34375-0.15234-0.34375-0.34375v-1.25c0-0.19141 0.15234-0.34375 0.34375-0.34375" fill="#fff"/></g></g><g clip-path="url(#d)"><g clip-path="url(#c)"><path d="m12.27 19.457h2.5c0.38281 0 0.6875 0.30469 0.6875 0.68359v2.5039c0 0.37891-0.30859 0.68359-0.6875 0.68359h-2.5c-0.38281 0-0.6875-0.30859-0.6875-0.68359v-2.5039c0-0.37891 0.30859-0.68359 0.6875-0.68359" fill="#fff"/></g></g><g clip-path="url(#b)"><g clip-path="url(#i)"><path d="m22.512 24.301h1.875c0.28516 0 0.51562 0.22656 0.51562 0.51172v1.8789c0 0.28125-0.23047 0.51172-0.51562 0.51172h-1.875c-0.28516 0-0.51562-0.23047-0.51562-0.51172v-1.8789c0-0.28516 0.23047-0.51172 0.51562-0.51172" fill="#fff"/></g></g></svg>
